SVG_Azure_Grouped/Generic/Virtual Assistant.svg

<?xml version="1.0" encoding="UTF-8" standalone="no"?>
<!-- Generated by Microsoft Visio, SVG Export Virtual Assistant.svg Page-1 -->

<svg
   xmlns:dc="http://purl.org/dc/elements/1.1/"
   xmlns:cc="http://creativecommons.org/ns#"
   xmlns:rdf="http://www.w3.org/1999/02/22-rdf-syntax-ns#"
   xmlns:svg="http://www.w3.org/2000/svg"
   xmlns="http://www.w3.org/2000/svg"
   xmlns:sodipodi="http://sodipodi.sourceforge.net/DTD/sodipodi-0.dtd"
   xmlns:inkscape="http://www.inkscape.org/namespaces/inkscape"
   width="0.78740293in"
   height="0.70871276in"
   viewBox="0 0 56.693079 51.027425"
   xml:space="preserve"
   class="st11"
   version="1.1"
   id="svg94"
   sodipodi:docname="Virtual Assistant.svg"
   style="font-size:12px;overflow:visible;color-interpolation-filters:sRGB;fill:none;fill-rule:evenodd;stroke-linecap:square;stroke-miterlimit:3"
   inkscape:version="0.92.5 (2060ec1f9f, 2020-04-08)"><metadata
   id="metadata100"><rdf:RDF><cc:Work
       rdf:about=""><dc:format>image/svg+xml</dc:format><dc:type
         rdf:resource="http://purl.org/dc/dcmitype/StillImage" /></cc:Work></rdf:RDF></metadata><defs
   id="defs98" /><sodipodi:namedview
   pagecolor="#ffffff"
   bordercolor="#666666"
   borderopacity="1"
   objecttolerance="10"
   gridtolerance="10"
   guidetolerance="10"
   inkscape:pageopacity="0"
   inkscape:pageshadow="2"
   inkscape:window-width="640"
   inkscape:window-height="480"
   id="namedview96"
   showgrid="false"
   inkscape:zoom="1.8195051"
   inkscape:cx="37.79523"
   inkscape:cy="19.499465"
   inkscape:window-x="0"
   inkscape:window-y="0"
   inkscape:window-maximized="0"
   inkscape:current-layer="svg94" />
	<style
   type="text/css"
   id="style2">
	<![CDATA[
		.st1 {fill:#7a7a7a;stroke:none;stroke-linecap:butt;stroke-width:12.24}
		.st2 {fill:#a0a1a2;stroke:none;stroke-linecap:butt;stroke-width:12.24}
		.st3 {fill:#ffffff;fill-opacity:0.2;stroke:none;stroke-linecap:butt;stroke-width:12.24}
		.st4 {fill:#59b4d9;stroke:none;stroke-linecap:butt;stroke-width:12.24}
		.st5 {fill:#b8d432;stroke:none;stroke-linecap:butt;stroke-width:12.24}
		.st6 {fill:#00188f;stroke:none;stroke-linecap:butt;stroke-width:12.24}
		.st7 {fill:#ffffff;fill-opacity:0.4;stroke:none;stroke-linecap:butt;stroke-width:12.24}
		.st8 {fill:#68217a;stroke:none;stroke-linecap:butt;stroke-width:12.24}
		.st9 {fill:#ec008c;fill-opacity:0.15;stroke:none;stroke-linecap:butt;stroke-width:12.24}
		.st10 {fill:#ffffff;fill-opacity:0.8;stroke:none;stroke-linecap:butt;stroke-width:12.24}
		.st11 {fill:none;fill-rule:evenodd;font-size:12px;overflow:visible;stroke-linecap:square;stroke-miterlimit:3}
	]]>
	</style>

	<g
   id="g92"
   transform="translate(-12.239999,-12.2369)">
		<title
   id="title4">Page-1</title>
		<g
   id="group16434-1"
   transform="translate(12.24,-34.0157)">
			<title
   id="title6">Virtual Assistant.16434</title>
			<g
   id="group16435-2">
				<title
   id="title8">g36</title>
				<g
   id="shape16436-3"
   transform="translate(10.2047)">
					<title
   id="title10">path4</title>
					<path
   d="M 25.26,85.14 H 11.03 C 12.86,91.83 10.78,93.8 0,93.8 v 3.48 H 36.28 V 93.8 C 25.5,93.8 23.42,91.83 25.26,85.14 Z"
   class="st1"
   id="path12"
   inkscape:connector-curvature="0"
   style="fill:#7a7a7a;stroke:none;stroke-width:12.23999977;stroke-linecap:butt" />
				</g>
				<g
   id="shape16437-5"
   transform="translate(2.26772,-11.5974)">
					<title
   id="title15">path6</title>
					<path
   d="M 48.72,57.85 H 3.09 C 1.38,57.85 0,59.39 0,61.1 v 32.96 c 0,1.7 1.38,3.22 3.09,3.22 h 45.63 c 1.71,0 3.44,-1.52 3.44,-3.22 V 61.1 c 0,-1.72 -1.73,-3.25 -3.44,-3.25 z"
   class="st2"
   id="path17"
   inkscape:connector-curvature="0"
   style="fill:#a0a1a2;stroke:none;stroke-width:12.23999977;stroke-linecap:butt" />
				</g>
				<g
   id="shape16438-7"
   transform="translate(2.26772,-11.5963)">
					<title
   id="title20">path8</title>
					<path
   d="M 48.59,57.86 48.56,57.85 H 3.08 C 1.38,57.85 0,59.39 0,61.1 v 32.96 c 0,1.7 1.38,3.22 3.08,3.22 h 1.19 z"
   class="st3"
   id="path22"
   inkscape:connector-curvature="0"
   style="fill:#ffffff;fill-opacity:0.2;stroke:none;stroke-width:12.23999977;stroke-linecap:butt" />
				</g>
				<g
   id="shape16439-9"
   transform="translate(6.80315,-16.2348)">
					<title
   id="title25">path10</title>
					<rect
   x="0"
   y="67.128998"
   width="43.086601"
   height="30.150299"
   class="st4"
   id="rect27"
   style="fill:#59b4d9;stroke:none;stroke-width:12.23999977;stroke-linecap:butt" />
				</g>
				<g
   id="shape16440-11"
   transform="translate(10.2047)">
					<title
   id="title30">path12</title>
					<path
   d="m 0,93.8 36.28,-0.02 v 3.5 H 0 Z"
   class="st2"
   id="path32"
   inkscape:connector-curvature="0"
   style="fill:#a0a1a2;stroke:none;stroke-width:12.23999977;stroke-linecap:butt" />
				</g>
				<g
   id="shape16441-13"
   transform="translate(27.5403,-47.881)">
					<title
   id="title35">path14</title>
					<path
   d="m 1.61,96.46 a 0.80504,0.82333702 0 1 1 -1.61008,0 0.80504,0.82333702 0 1 1 1.61008,0 z"
   class="st5"
   id="path37"
   inkscape:connector-curvature="0"
   style="fill:#b8d432;stroke:none;stroke-width:12.23999977;stroke-linecap:butt" />
				</g>
				<g
   id="shape16442-15"
   transform="translate(17.0079,-19.7137)">
					<title
   id="title40">path16</title>
					<path
   d="m 2.26,97.28 h 10.78 c 1.07,0 2.08,-0.52 2.72,-1.39 l 0.76,-1.04 c 0.6,-0.82 -0.06,-1.98 -1.06,-1.84 L 0,94.96 Z"
   class="st6"
   id="path42"
   inkscape:connector-curvature="0"
   style="fill:#00188f;stroke:none;stroke-width:12.23999977;stroke-linecap:butt" />
				</g>
				<g
   id="shape16443-17"
   transform="translate(22.6772,-29.5705)">
					<title
   id="title45">path18</title>
					<path
   d="m 6.29,97.28 h 6.13 a 2.8868,2.95241 -180 0 0 2.89,-2.95 l 1.13,-4.54 A 2.8868,2.95241 -180 0 0 13.56,86.84 H 2.89 C 1.29,86.84 0,87.53 0,89.8 c 0,5.74 2.89,7.48 6.29,7.48 z"
   class="st7"
   id="path47"
   inkscape:connector-curvature="0"
   style="fill:#ffffff;fill-opacity:0.4;stroke:none;stroke-width:12.23999977;stroke-linecap:butt" />
				</g>
				<g
   id="shape16444-19"
   transform="translate(1.18488,-29.5705)">
					<title
   id="title50">path20</title>
					<path
   d="M 8.51,97.28 H 2.89 A 2.8868,2.95241 0 0 1 0,94.33 v -4.54 a 2.8868,2.95241 0 0 1 2.89,-2.95 h 9.02 c 1.59,0 2.88,0.69 2.88,2.95 0,5.75 -2.88,7.49 -6.28,7.49 z"
   class="st4"
   id="path52"
   inkscape:connector-curvature="0"
   style="fill:#59b4d9;stroke:none;stroke-width:12.23999977;stroke-linecap:butt" />
				</g>
				<g
   id="shape16445-21"
   transform="translate(1.18488,-29.5705)">
					<title
   id="title55">path22</title>
					<path
   d="M 8.51,97.28 H 2.89 A 2.8868,2.95241 0 0 1 0,94.33 v -4.54 a 2.8868,2.95241 0 0 1 2.89,-2.95 h 9.02 c 1.59,0 2.88,0.69 2.88,2.95 0,5.75 -2.88,7.49 -6.28,7.49 z"
   class="st7"
   id="path57"
   inkscape:connector-curvature="0"
   style="fill:#ffffff;fill-opacity:0.4;stroke:none;stroke-width:12.23999977;stroke-linecap:butt" />
				</g>
				<g
   id="shape16446-23"
   transform="translate(1.69965,-28.9907)">
					<title
   id="title60">path24</title>
					<path
   d="M 2.89,97.28 C 2.89,97.28 0,95.96 0,94.33 v -4.54 a 2.88794,2.95357 0 0 1 2.89,-2.95 h 7.88 z m 21.54,0 c 0,0 -2.89,-1.32 -2.89,-2.95 v -4.54 a 2.8868,2.95241 0 0 1 2.89,-2.95 h 7.89 z"
   class="st3"
   id="path62"
   inkscape:connector-curvature="0"
   style="fill:#ffffff;fill-opacity:0.2;stroke:none;stroke-width:12.23999977;stroke-linecap:butt" />
				</g>
				<g
   id="shape16447-25"
   transform="translate(16.4931,-32.4696)">
					<title
   id="title65">path26</title>
					<path
   d="M 34.37,89.33 C 29.99,88.69 25.46,88 25.46,88 v 3.48 l 9.12,1.16 c 0,0 -1.89,-0.24 0,0.01 2.64,0.35 3.35,1.15 3.35,3.47 v 1.16 c 1.14,0 2.27,-1.71 2.27,-3.48 0,-1.77 -1.45,-3.83 -5.83,-4.47 z M 5.66,90.32 H 0 v 6.69 c 1.14,-3.21 4.55,-3.21 5.66,0 z"
   class="st8"
   id="path67"
   inkscape:connector-curvature="0"
   style="fill:#68217a;stroke:none;stroke-width:12.23999977;stroke-linecap:butt" />
				</g>
				<g
   id="shape16448-27"
   transform="translate(0,-27.8311)">
					<title
   id="title70">path28</title>
					<path
   d="m 35.1,97.28 h -6.14 c -5.07,0 -7.98,-3.36 -7.98,-9.22 0,-2.94 1.71,-4.7 4.58,-4.7 h 10.67 c 2.53,0 4.59,2.43 4.59,4.7 0,4.58 -1.13,9.22 -5.72,9.22 z M 25.56,86.84 c -0.97,0 -1.18,0.22 -1.18,1.22 0,5.09 2.45,5.74 4.59,5.74 h 6.13 c 2.32,0 2.32,-5.74 2.32,-5.74 0,-0.67 -0.53,-1.22 -1.19,-1.22 z M 9.69,97.28 H 4.59 A 4.59213,4.69649 0 0 1 0,92.59 v -4.53 a 4.59213,4.69649 0 0 1 4.59,-4.7 h 8.5 c 2.87,0 4.59,1.76 4.59,4.7 0,5.86 -2.91,9.22 -7.99,9.22 z M 4.59,86.84 c -0.66,0 -1.19,0.55 -1.19,1.22 v 4.53 c 0,0.67 0.53,1.21 1.19,1.21 h 5.1 c 2.14,0 4.59,-0.65 4.59,-5.74 0,-1 -0.21,-1.22 -1.19,-1.22 z"
   class="st8"
   id="path72"
   inkscape:connector-curvature="0"
   style="fill:#68217a;stroke:none;stroke-width:12.23999977;stroke-linecap:butt" />
				</g>
				<g
   id="shape16449-29"
   transform="translate(0,-37.1081)">
					<title
   id="title75">path30</title>
					<path
   d="m 39.69,97.28 h 1.13 c 2.27,0 2.27,-2.32 2.27,-3.48 a 1.13386,1.15963 -180 0 0 -1.14,-1.16 h -5.67 z m -37.94,0 H 0 V 93.8 a 1.13386,1.15963 0 0 1 1.13,-1.16 h 4.02 z"
   class="st8"
   id="path77"
   inkscape:connector-curvature="0"
   style="fill:#68217a;stroke:none;stroke-width:12.23999977;stroke-linecap:butt" />
				</g>
				<g
   id="shape16450-31"
   transform="translate(0,-27.8311)">
					<title
   id="title80">path32</title>
					<path
   d="m 50.86,84.69 c -4.38,-0.64 -8.91,-1.33 -8.91,-1.33 h -5.67 l 0.01,0.01 c -0.02,0 -0.04,-0.01 -0.06,-0.01 H 25.56 c -1.97,0 -3.38,0.85 -4.08,2.32 h -4.3 c -0.7,-1.47 -2.11,-2.32 -4.09,-2.32 H 1.13 A 1.13386,1.15963 -180 0 0 0,84.52 V 88 88 c 0,0.02 0,0.04 0,0.06 v 4.53 a 4.59213,4.69649 -180 0 0 4.59,4.69 h 5.1 c 4.21,0 6.92,-2.32 7.73,-6.44 1.11,-1.15 2.7,-1.16 3.81,-0.01 0.81,4.13 3.52,6.45 7.74,6.45 h 6.13 c 4.59,0 5.72,-4.64 5.72,-9.22 0,-0.02 -0.01,-0.04 -0.01,-0.06 h 0.01 c 1,0 1.55,-0.46 1.86,-1.07 l 7.6,0.97 0.79,0.11 c 2.64,0.35 3.36,1.15 3.36,3.47 v 1.16 c 1.13,0 2.26,-1.71 2.26,-3.48 0,-1.77 -1.45,-3.83 -5.83,-4.47 z M 9.69,93.8 H 4.59 A 1.18602,1.21297 0 0 1 3.4,92.59 v -4.53 c 0,-0.67 0.53,-1.22 1.19,-1.22 h 8.5 c 0.98,0 1.19,0.22 1.19,1.22 0,5.09 -2.45,5.74 -4.59,5.74 z m 25.41,0 h -6.13 c -2.14,0 -4.59,-0.65 -4.59,-5.74 0,-1 0.21,-1.22 1.18,-1.22 h 10.67 c 0.66,0 1.19,0.55 1.19,1.22 0,0 0,5.74 -2.32,5.74 z M 50.83,87.97 51.07,88 Z"
   class="st9"
   id="path82"
   inkscape:connector-curvature="0"
   style="fill:#ec008c;fill-opacity:0.15;stroke:none;stroke-width:12.23999977;stroke-linecap:butt" />
				</g>
				<g
   id="shape16451-33"
   transform="translate(1.13386,-39.4273)">
					<title
   id="title85">path34</title>
					<path
   d="m 1.13,96.12 v 1.16 H 0 v -1.16 z m 38.56,0 v 1.16 h -1.14 v -1.16 z"
   class="st10"
   id="path87"
   inkscape:connector-curvature="0"
   style="fill:#ffffff;fill-opacity:0.8;stroke:none;stroke-width:12.23999977;stroke-linecap:butt" />
				</g>
			</g>
		</g>
	</g>
</svg>

<?xml version="1.0" encoding="UTF-8" standalone="no"?>
<!DOCTYPE svg PUBLIC "-//W3C//DTD SVG 1.1//EN" "http://www.w3.org/Graphics/SVG/1.1/DTD/svg11.dtd">
<!-- Generated by Microsoft Visio, SVG Export Virtual Assistant.svg Page-1 -->
<svg xmlns="http://www.w3.org/2000/svg" xmlns:xlink="http://www.w3.org/1999/xlink" xmlns:ev="http://www.w3.org/2001/xml-events"
		width="1.1274in" height="1.3511in" viewBox="0 0 81.1729 97.2794" xml:space="preserve" color-interpolation-filters="sRGB"
		class="st11">
	<style type="text/css">
	<![CDATA[
		.st1 {fill:#7a7a7a;stroke:none;stroke-linecap:butt;stroke-width:12.24}
		.st2 {fill:#a0a1a2;stroke:none;stroke-linecap:butt;stroke-width:12.24}
		.st3 {fill:#ffffff;fill-opacity:0.2;stroke:none;stroke-linecap:butt;stroke-width:12.24}
		.st4 {fill:#59b4d9;stroke:none;stroke-linecap:butt;stroke-width:12.24}
		.st5 {fill:#b8d432;stroke:none;stroke-linecap:butt;stroke-width:12.24}
		.st6 {fill:#00188f;stroke:none;stroke-linecap:butt;stroke-width:12.24}
		.st7 {fill:#ffffff;fill-opacity:0.4;stroke:none;stroke-linecap:butt;stroke-width:12.24}
		.st8 {fill:#68217a;stroke:none;stroke-linecap:butt;stroke-width:12.24}
		.st9 {fill:#ec008c;fill-opacity:0.15;stroke:none;stroke-linecap:butt;stroke-width:12.24}
		.st10 {fill:#ffffff;fill-opacity:0.8;stroke:none;stroke-linecap:butt;stroke-width:12.24}
		.st11 {fill:none;fill-rule:evenodd;font-size:12px;overflow:visible;stroke-linecap:square;stroke-miterlimit:3}
	]]>
	</style>

	<g>
		<title>Page-1</title>
		<g id="group16051-1" transform="translate(12.24,-34.0157)">
			<title>Virtual Assistant.16051</title>
			<g id="group16052-2">
				<title>g36</title>
				<g id="shape16053-3" transform="translate(10.2047,1.42109E-14)">
					<title>path4</title>
					<path d="M25.26 85.14 L11.03 85.14 C12.86 91.83 10.78 93.8 0 93.8 L0 97.28 L36.28 97.28 L36.28 93.8 C25.5 93.8
								 23.42 91.83 25.26 85.14 Z" class="st1"/>
				</g>
				<g id="shape16054-5" transform="translate(2.26772,-11.5974)">
					<title>path6</title>
					<path d="M48.72 57.85 L3.09 57.85 C1.38 57.85 0 59.39 0 61.1 L0 94.06 C0 95.76 1.38 97.28 3.09 97.28 L48.72 97.28
								 C50.43 97.28 52.16 95.76 52.16 94.06 L52.16 61.1 C52.16 59.38 50.43 57.85 48.72 57.85 Z"
							class="st2"/>
				</g>
				<g id="shape16055-7" transform="translate(2.26772,-11.5963)">
					<title>path8</title>
					<path d="M48.59 57.86 L48.56 57.85 L3.08 57.85 C1.38 57.85 0 59.39 0 61.1 L0 94.06 C0 95.76 1.38 97.28 3.08 97.28
								 L4.27 97.28 L48.59 57.86 Z" class="st3"/>
				</g>
				<g id="shape16056-9" transform="translate(6.80315,-16.2348)">
					<title>path10</title>
					<rect x="0" y="67.129" width="43.0866" height="30.1503" class="st4"/>
				</g>
				<g id="shape16057-11" transform="translate(10.2047,-1.42109E-14)">
					<title>path12</title>
					<path d="M0 93.8 L36.28 93.78 L36.28 97.28 L0 97.28 L0 93.8 Z" class="st2"/>
				</g>
				<g id="shape16058-13" transform="translate(27.5403,-47.881)">
					<title>path14</title>
					<path d="M1.61 96.46 a0.805039 0.823336 0 1 1 -1.61008 0 a0.805039 0.823336 0 1 1 1.61008 -1.42109E-14 Z"
							class="st5"/>
				</g>
				<g id="shape16059-15" transform="translate(17.0079,-19.7137)">
					<title>path16</title>
					<path d="M2.26 97.28 L13.04 97.28 C14.11 97.28 15.12 96.76 15.76 95.89 L16.52 94.85 C17.12 94.03 16.46 92.87
								 15.46 93.01 L0 94.96 L2.26 97.28 Z" class="st6"/>
				</g>
				<g id="shape16060-17" transform="translate(22.6772,-29.5705)">
					<title>path18</title>
					<path d="M6.29 97.28 L12.42 97.28 A2.8868 2.95241 -180 0 0 15.31 94.33 L16.44 89.79 A2.8868 2.95241 -180 0 0
								 13.56 86.84 L2.89 86.84 C1.29 86.84 0 87.53 0 89.8 C0 95.54 2.89 97.28 6.29 97.28 Z" class="st7"/>
				</g>
				<g id="shape16061-19" transform="translate(1.18488,-29.5705)">
					<title>path20</title>
					<path d="M8.51 97.28 L2.89 97.28 A2.8868 2.95241 0 0 1 0 94.33 L0 89.79 A2.8868 2.95241 0 0 1 2.89 86.84 L11.91
								 86.84 C13.5 86.84 14.79 87.53 14.79 89.79 C14.79 95.54 11.91 97.28 8.51 97.28 Z" class="st4"/>
				</g>
				<g id="shape16062-21" transform="translate(1.18488,-29.5705)">
					<title>path22</title>
					<path d="M8.51 97.28 L2.89 97.28 A2.8868 2.95241 0 0 1 0 94.33 L0 89.79 A2.8868 2.95241 0 0 1 2.89 86.84 L11.91
								 86.84 C13.5 86.84 14.79 87.53 14.79 89.79 C14.79 95.54 11.91 97.28 8.51 97.28 Z" class="st7"/>
				</g>
				<g id="shape16063-23" transform="translate(1.69965,-28.9907)">
					<title>path24</title>
					<path d="M2.89 97.28 C2.89 97.28 0 95.96 0 94.33 L0 89.79 A2.88794 2.95357 0 0 1 2.89 86.84 L10.77 86.84 L2.89
								 97.28 ZM24.43 97.28 C24.43 97.28 21.54 95.96 21.54 94.33 L21.54 89.79 A2.8868 2.95241 0 0 1 24.43
								 86.84 L32.32 86.84 L24.43 97.28 Z" class="st3"/>
				</g>
				<g id="shape16064-25" transform="translate(16.4931,-32.4696)">
					<title>path26</title>
					<path d="M34.37 89.33 C29.99 88.69 25.46 88 25.46 88 L25.46 91.48 L34.58 92.64 C34.58 92.64 32.69 92.4 34.58
								 92.65 C37.22 93 37.93 93.8 37.93 96.12 L37.93 97.28 C39.07 97.28 40.2 95.57 40.2 93.8 C40.2 92.03
								 38.75 89.97 34.37 89.33 ZM5.66 90.32 L0 90.32 L0 97.01 C1.14 93.8 4.55 93.8 5.66 97.01 L5.66 90.32
								 Z" class="st8"/>
				</g>
				<g id="shape16065-27" transform="translate(0,-27.8311)">
					<title>path28</title>
					<path d="M35.1 97.28 L28.96 97.28 C23.89 97.28 20.98 93.92 20.98 88.06 C20.98 85.12 22.69 83.36 25.56 83.36 L36.23
								 83.36 C38.76 83.36 40.82 85.79 40.82 88.06 C40.82 92.64 39.69 97.28 35.1 97.28 ZM25.56 86.84 C24.59
								 86.84 24.38 87.06 24.38 88.06 C24.38 93.15 26.83 93.8 28.97 93.8 L35.1 93.8 C37.42 93.8 37.42 88.06
								 37.42 88.06 C37.42 87.39 36.89 86.84 36.23 86.84 L25.56 86.84 ZM9.69 97.28 L4.59 97.28 A4.59213
								 4.69649 0 0 1 0 92.59 L0 88.06 A4.59213 4.69649 0 0 1 4.59 83.36 L13.09 83.36 C15.96 83.36 17.68
								 85.12 17.68 88.06 C17.68 93.92 14.77 97.28 9.69 97.28 ZM4.59 86.84 C3.93 86.84 3.4 87.39 3.4 88.06
								 L3.4 92.59 C3.4 93.26 3.93 93.8 4.59 93.8 L9.69 93.8 C11.83 93.8 14.28 93.15 14.28 88.06 C14.28
								 87.06 14.07 86.84 13.09 86.84 L4.59 86.84 Z" class="st8"/>
				</g>
				<g id="shape16066-29" transform="translate(0,-37.1081)">
					<title>path30</title>
					<path d="M39.69 97.28 L40.82 97.28 C43.09 97.28 43.09 94.96 43.09 93.8 A1.13386 1.15963 -180 0 0 41.95 92.64
								 L36.28 92.64 L39.69 97.28 ZM1.75 97.28 L0 97.28 L0 93.8 A1.13386 1.15963 0 0 1 1.13 92.64 L5.15
								 92.64 L1.75 97.28 Z" class="st8"/>
				</g>
				<g id="shape16067-31" transform="translate(0,-27.8311)">
					<title>path32</title>
					<path d="M50.86 84.69 C46.48 84.05 41.95 83.36 41.95 83.36 L36.28 83.36 L36.29 83.37 C36.27 83.37 36.25 83.36
								 36.23 83.36 L25.56 83.36 C23.59 83.36 22.18 84.21 21.48 85.68 L17.18 85.68 C16.48 84.21 15.07 83.36
								 13.09 83.36 L1.13 83.36 A1.13386 1.15963 -180 0 0 -0 84.52 L0 88 L0 88 C0 88.02 0 88.04 0 88.06
								 L0 92.59 A4.59213 4.69649 -180 0 0 4.59 97.28 L9.69 97.28 C13.9 97.28 16.61 94.96 17.42 90.84 C18.53
								 89.69 20.12 89.68 21.23 90.83 C22.04 94.96 24.75 97.28 28.97 97.28 L35.1 97.28 C39.69 97.28 40.82
								 92.64 40.82 88.06 C40.82 88.04 40.81 88.02 40.81 88 L40.82 88 C41.82 88 42.37 87.54 42.68 86.93
								 L50.28 87.9 L51.07 88.01 C53.71 88.36 54.43 89.16 54.43 91.48 L54.43 92.64 C55.56 92.64 56.69 90.93
								 56.69 89.16 C56.69 87.39 55.24 85.33 50.86 84.69 ZM9.69 93.8 L4.59 93.8 A1.18602 1.21297 0 0 1 3.4
								 92.59 L3.4 88.06 C3.4 87.39 3.93 86.84 4.59 86.84 L13.09 86.84 C14.07 86.84 14.28 87.06 14.28 88.06
								 C14.28 93.15 11.83 93.8 9.69 93.8 ZM35.1 93.8 L28.97 93.8 C26.83 93.8 24.38 93.15 24.38 88.06 C24.38
								 87.06 24.59 86.84 25.56 86.84 L36.23 86.84 C36.89 86.84 37.42 87.39 37.42 88.06 C37.42 88.06 37.42
								 93.8 35.1 93.8 ZM50.83 87.97 L51.07 88 L50.83 87.97 Z" class="st9"/>
				</g>
				<g id="shape16068-33" transform="translate(1.13386,-39.4273)">
					<title>path34</title>
					<path d="M1.13 96.12 L1.13 97.28 L0 97.28 L0 96.12 L1.13 96.12 ZM39.69 96.12 L39.69 97.28 L38.55 97.28 L38.55
								 96.12 L39.69 96.12 Z" class="st10"/>
				</g>
			</g>
		</g>
	</g>
</svg>
